X: 34
T: No_129_While_We_Drink_the_Wine.krn
N: Derived from No_129_While_We_Drink_the_Wine.krn
%%abc-version 2.0
%%abcx-abcm2ps-target-version 5.9.1 (29 Sep 2008)
%%abc-creator hum2abc beta
%%abcx-conversion-date 2019/03/15 08:37:56
%%humdrum-veritas 2907880603
%%humdrum-veritas-data 1012486700
%%linebreak <none>
%%barnumbers 0
L: 1/8
M: 2/4
K: Ab clef=bass
[K:clef=bass][M:2/4]C2-CC/B,/ | 
CC A, z | 
B,2-B,B,/G,/ | 
B,B,F,2 | 
F,F, B,F, | 
F,2F,2 | 
F,2F,/E,/ z | 
F,2F,2 | 
F,4- | 
F,4 | 
C2-CC/B,/ | 
CC A, z | 
B,2-B,B,/G,/ | 
B,B,F,2 | 
F,F, B,F, | 
F,2F,2 | 
F,2F,/E,/ z | 
F,2F,2 | 
F,4- | 
F, zG,2 | 
B,2G,F, | 
F,2F,2 | 
G,F, G,F, ||  
[M:3/4]F,D, G,G, B,G, ||  
[M:2/4]F,2F,2 | 
F,2F,/E,/ z | 
F,2F,2 | 
F,4- | 
F, zG,2 | 
B,2G,F, | 
F,2F,2 | 
G,F, G,F, ||  
[M:3/4]F,D, G,G, B,G, ||  
[M:2/4]F,2F,2 | 
F,2F,/E,/ z | 
F,2F,2 | 
F,4 |]  



